src/img/header/vk.svg

<svg width="36" height="21" viewBox="0 0 36 21" fill="none" xmlns="http://www.w3.org/2000/svg">
<path d="M33.7494 20.7303H29.3742C28.7012 20.7319 28.0651 20.4221 27.6512 19.8915L23.3855 14.45C23.194 14.2054 22.8688 14.1087 22.5748 14.2096C22.281 14.3103 22.0831 14.5859 22.0821 14.8965V17.0841C22.0821 19.0986 20.1223 20.7303 17.7069 20.7303C16.7626 20.7388 15.8357 20.4763 15.0362 19.9737C8.91079 16.0541 4.75429 11.1047 1.14496 3.42997C0.826911 2.75276 0.877114 1.95991 1.27794 1.32809C1.67877 0.696268 2.37468 0.313331 3.12293 0.31253H7.49814C8.3735 0.310394 9.16581 0.830324 9.51243 1.63412L10.0046 2.78266C10.7483 4.50802 11.7468 6.11214 12.9671 7.54081C13.0069 7.58354 13.0636 7.60704 13.122 7.60463C13.1757 7.60971 13.2294 7.59181 13.2692 7.55523C13.3092 7.51891 13.3319 7.46711 13.3317 7.41316V4.56009C12.3308 4.20252 11.7321 3.17735 11.9118 2.13001C12.0915 1.08268 12.9981 0.316001 14.061 0.31253H19.8945C21.1026 0.31253 22.0821 1.29204 22.0821 2.50013V7.60463C22.0826 7.93016 22.2989 8.21589 22.6122 8.30481C22.9254 8.39374 23.2595 8.26422 23.4312 7.9873L27.5054 1.36067C27.9004 0.706683 28.6102 0.308524 29.3742 0.31253H33.7494C34.5577 0.312797 35.2998 0.759023 35.6796 1.47256C36.0593 2.18609 36.0144 3.05104 35.5631 3.72158L30.9692 10.0929C30.7836 10.3485 30.7836 10.6943 30.9692 10.9499L35.5268 17.2665C36.0054 17.933 36.0708 18.8113 35.6961 19.5414C35.3215 20.2715 34.5697 20.7303 33.7494 20.7303ZM22.8114 12.7089C23.4843 12.7075 24.1201 13.017 24.5341 13.5476L28.7998 18.9891C28.9376 19.1667 29.1493 19.2711 29.3742 19.2717H33.7494C34.0239 19.2727 34.2757 19.1192 34.4007 18.8749C34.5259 18.6302 34.503 18.3365 34.3417 18.114L29.7844 11.7975C29.2321 11.0329 29.2321 10.0008 29.7844 9.23626L34.3692 2.88307C34.4413 2.76824 34.4792 2.63552 34.4784 2.50013C34.4784 2.09744 34.1521 1.77084 33.7494 1.77084H29.3742C29.1213 1.77111 28.8868 1.90223 28.7544 2.1172L24.6799 8.74383C24.1698 9.58181 23.1641 9.97783 22.2196 9.71239C21.2751 9.44722 20.623 8.58547 20.6238 7.60463V2.50013C20.6238 2.09744 20.2972 1.77084 19.8945 1.77084H14.061C13.658 1.77084 13.3317 2.09744 13.3317 2.50013C13.3317 2.90283 13.658 3.22942 14.061 3.22942H14.79V7.41316C14.7817 8.10507 14.3472 8.72006 13.6975 8.95907C13.0481 9.1978 12.3185 9.01061 11.864 8.48881C10.5504 6.95038 9.47478 5.22369 8.67392 3.36615L8.17242 2.2176C8.05839 1.94629 7.79242 1.77004 7.49814 1.77084H3.12293C2.87405 1.77218 2.64306 1.90036 2.51007 2.11079C2.37709 2.32122 2.3608 2.58479 2.46655 2.81017C5.99416 10.3116 9.86787 14.9331 15.829 18.7523C16.3938 19.0981 17.0446 19.2784 17.7069 19.2717C19.311 19.2717 20.6238 18.2874 20.6238 17.0841V14.8965C20.6238 13.6884 21.603 12.7089 22.8114 12.7089Z" fill="black"/>
</svg>

<svg width="36" height="21" fill="none" xmlns="http://www.w3.org/2000/svg"><path d="M33.75 20.73h-4.376a2.179 2.179 0 0 1-1.723-.838l-4.265-5.442a.729.729 0 0 0-1.304.447v2.187c0 2.015-1.96 3.646-4.375 3.646a4.934 4.934 0 0 1-2.67-.756C8.91 16.054 4.753 11.104 1.144 3.43A2.188 2.188 0 0 1 3.123.313h4.375a2.188 2.188 0 0 1 2.014 1.321l.493 1.149a18.759 18.759 0 0 0 2.962 4.758.2.2 0 0 0 .155.064.191.191 0 0 0 .21-.192V4.56A2.187 2.187 0 0 1 14.06.313h5.834c1.208 0 2.187.979 2.187 2.187v5.105a.729.729 0 0 0 1.35.382l4.073-6.626a2.17 2.17 0 0 1 1.87-1.048h4.374a2.188 2.188 0 0 1 1.814 3.409l-4.594 6.37a.73.73 0 0 0 0 .858l4.558 6.317a2.188 2.188 0 0 1-1.778 3.463Zm-10.94-8.02a2.18 2.18 0 0 1 1.723.839l4.266 5.441a.73.73 0 0 0 .574.283h4.375a.729.729 0 0 0 .593-1.158l-4.558-6.317a2.187 2.187 0 0 1 0-2.56l4.585-6.354a.73.73 0 0 0-.62-1.112h-4.375a.729.729 0 0 0-.62.346L24.68 8.744a2.188 2.188 0 0 1-4.056-1.14V2.5a.73.73 0 0 0-.73-.73h-5.833a.73.73 0 1 0 0 1.46h.729v4.183a1.668 1.668 0 0 1-2.926 1.076 20.214 20.214 0 0 1-3.19-5.123l-.502-1.148a.73.73 0 0 0-.674-.447H3.123a.73.73 0 0 0-.656 1.04c3.527 7.5 7.4 12.122 13.362 15.941a3.529 3.529 0 0 0 1.878.52c1.604 0 2.917-.985 2.917-2.188v-2.188c0-1.208.979-2.187 2.187-2.187Z" fill="#000"/></svg>
